X: 33718
T: Rash Decisions
R: reel
M: 4/4
K: Dmajor
A,|DFFF AFFF|GABG FBAG|FAde fefg|afd fda fd|
FDDG DDAD|BDD cdDDc|BAGB AGFA|dcBc d3:|
e|fBfd eBeg|aeca bagf|gdBd fdBd|ebge bage|
fBBB gBBB|dBBB cAAA|BdcB AGFa|bagf e3:|

